resources/svg/regular/mail-send.svg

<svg xmlns="http://www.w3.org/2000/svg" fill="currentColor" stroke="none" viewBox="0 0 24 24"><path d="M20 4H6c-1.103 0-2 .897-2 2v5h2V8l6.4 4.8a1.001 1.001 0 0 0 1.2 0L20 8v9h-8v2h8c1.103 0 2-.897 2-2V6c0-1.103-.897-2-2-2zm-7 6.75L6.666 6h12.668L13 10.75z"/><path d="M2 12h7v2H2zm2 3h6v2H4zm3 3h4v2H7z"/></svg>

<svg xmlns="http://www.w3.org/2000/svg" fill="currentColor" stroke="none" viewBox="0 0 24 24"><path d="M20,4H6C4.897,4,4,4.897,4,6v5h2V8l6.4,4.8c0.178,0.133,0.389,0.2,0.6,0.2s0.422-0.067,0.6-0.2L20,8v9h-8v2h8 c1.103,0,2-0.897,2-2V6C22,4.897,21.103,4,20,4z M13,10.75L6.666,6h12.668L13,10.75z"/><path d="M2 12H9V14H2zM4 15H10V17H4zM7 18H11V20H7z"/></svg>
